X: 34
T:Minuet,A. JBa.33
M:3/4
L:1/4
Q:70
S:Joseph Barnes MS,Carlisle,1762.
R:minuet
O:England
A:Carlisle
N:sh- is the squiggle under this note the sign for a shake.  Or just a
N:hair on the photocopy
Z:vmp.C.Graebe.
K:G Major
G/A/ Bc | dgg | e/d/ cB | "sh"A2 G |!
 D/E/ B-B |D/G/ c-c | B/d/ cB | BAA :|!
|: D/F/ G d | c(B/A/)B | G/B/ dd |F2E |!
 D/F/ A d | c (B/A/ B) | G/c/B/A/G/F/ | G3 :|]
